packages/ui-icons/src/Service-logos/24/GooglePlay.svg

<svg viewBox="0 0 32 32" fill="none" xmlns="http://www.w3.org/2000/svg">
<path d="M16 28C22.6274 28 28 22.6274 28 16C28 9.37258 22.6274 4 16 4C9.37258 4 4 9.37258 4 16C4 22.6274 9.37258 28 16 28Z" fill="white"/>
<path d="M20.8233 18.4226C22.5415 17.47 23.8537 16.7424 23.9731 16.6762C24.3292 16.4788 24.7022 15.975 23.9731 15.5723C23.7388 15.4426 22.4618 14.7374 20.8213 13.8308L18.5649 16.1338L20.8233 18.4226Z" fill="#FFE300"/>
<path d="M18.5648 16.1338L11.348 23.4994C11.511 23.5204 11.707 23.4766 11.9325 23.3516C12.3993 23.0929 17.4122 20.3135 20.8233 18.4223L18.5648 16.1338Z" fill="#FF4E54"/>
<path d="M18.5648 16.1338L20.8212 13.8308C20.8212 13.8308 12.4346 9.19628 11.9325 8.91883C11.7395 8.81216 11.5291 8.77493 11.3429 8.81694L18.5648 16.1338Z" fill="#00F085"/>
<path d="M18.5648 16.1338L11.3428 8.81702C11.0445 8.88441 10.8 9.14592 10.8 9.67155V22.6215C10.8 23.1166 10.9923 23.4647 11.3479 23.4994L18.5648 16.1338Z" fill="#00E0FF"/>
<path fill-rule="evenodd" clip-rule="evenodd" d="M16 4.54167C9.67174 4.54167 4.54167 9.67174 4.54167 16C4.54167 22.3283 9.67174 27.4583 16 27.4583C22.3283 27.4583 27.4583 22.3283 27.4583 16C27.4583 9.67174 22.3283 4.54167 16 4.54167ZM3.5 16C3.5 9.09644 9.09644 3.5 16 3.5C22.9036 3.5 28.5 9.09644 28.5 16C28.5 22.9036 22.9036 28.5 16 28.5C9.09644 28.5 3.5 22.9036 3.5 16Z" fill="#D8D8D8"/>
</svg>

<svg viewBox="0 0 32 32" fill="none" xmlns="http://www.w3.org/2000/svg"><path d="M16 28c6.627 0 12-5.373 12-12S22.627 4 16 4 4 9.373 4 16s5.373 12 12 12Z" fill="#fff"/><path d="m20.823 18.423 3.15-1.747c.356-.197.73-.701 0-1.104l-3.152-1.741-2.256 2.303 2.258 2.289Z" fill="#FFE300"/><path d="m18.565 16.134-7.217 7.365c.163.021.359-.022.584-.147l8.891-4.93-2.258-2.288Z" fill="#FF4E54"/><path d="m18.565 16.134 2.256-2.303-8.889-4.912a.847.847 0 0 0-.59-.102l7.223 7.317Z" fill="#00F085"/><path d="m18.565 16.134-7.222-7.317c-.299.067-.543.329-.543.855v12.95c0 .495.192.843.548.877l7.217-7.365Z" fill="#00E0FF"/><path fill-rule="evenodd" clip-rule="evenodd" d="M16 4.542C9.672 4.542 4.542 9.672 4.542 16S9.672 27.458 16 27.458 27.458 22.328 27.458 16 22.328 4.542 16 4.542ZM3.5 16C3.5 9.096 9.096 3.5 16 3.5S28.5 9.096 28.5 16 22.904 28.5 16 28.5 3.5 22.904 3.5 16Z" fill="#D8D8D8"/></svg>
